X:716
T:Hei tuti teti
S:Oswald, CPC, book III, p13
N:bar 15 is |fagb afec dA f4 e2| in the book (c natural)
M:C
L:1/16
Q:1/4=84 "Modly. Slow"
K:A Dorian
  f4         f2f2      Tf4          a4       | e4          e2e2     (e3f)       g4       |\
 (af3)      Te3d       (d3e)        f2e2     |(dB3)       TB3A       A8                 :|
  A3B        A2F2       A2B2        d4       | B3d         B2A2      B2d2      (efg2)    |\
  f2a2       e2f2       d3e        (fa)(ef)  | d2B2        d2(BA)    A8                 :|
 (a/g/f3)   (a/g/f3)   (Ad)(fa)     a4       |(g/f/e3)    (g/f/e3)  (A^c)(eg)   g4       |\
  f2(ad)     e2(g^c)    d2A2        faef     | d2B2        d2(BA)    A8                 :|
  AFdF       AFdF       AFAB        d4       |(BAB)d      (BAB)d    (BAB)d ({ef}g4)      |\
  fagb       afe^c      dA  f4          e2   |(dB3)      (TB3A)      A8                 :|
 (af3)      (af3)      (Ad)(fa)    (df)(ad') |(ge3)       (ge3)     (A^c)(eg)  (A^c)(eg) |\
 (fd).d.d   (ge).e.e   (af).f.f    (bg).g.g  | fdeB        d2(BA)    A8                 :|
 (AF3)      (AF3)       AFTF2       AdTd2    |(BG3)       (BG3)      BGTG2      BgTg2    |\
  faTa2      egTg2      dfTf2       egfe     | d2B2        d2(BA)    A8                 :|
(3agf .f.f (3agf .f.f  (a<f)(a<f)  (a<f)(a<f)|(3gfe .e.e (3gfe .e.e (g<e)(g<e) (g<e)(g<e)|\
(3fed .d.d (3gfe .e.e (3agf (3bag (3agf (3gfe| (dB3)     (TB3A)      A8                 :|
  AFTF2      AFTF2      AFTF2       Ad'd'2   | BGTG2       BGG2      BGG2       Bd'd'2   |\
 (bd')(gb)  (ad')(fa)  (gb)(eg)    (fa)(dg)  | B4          d2(BA)    A8                 :|
  f4         f2f2       f4          a4       | e4          e2e2     (e2f2)(g2b2)         |\
 (af3)     (Te3d)       d4         (de)f2    |(dB3)       TB3A       A8                 :|
 (A3B)      (A3B)      (A3B)        d4       |(dB3)      (TB3A)      B4        (gab2)    |\
 (af3)     (Te3d)      (af3)       (edef)    |(dB3)       TB3A       A8                 :|

